svg/folder_check_outline.svg

<svg xmlns="http://www.w3.org/2000/svg" viewBox="0 0 24 24"><path d="M13 19c0 .34.04.67.09 1H4a2 2 0 0 1-2-2V6c0-1.11.89-2 2-2h6l2 2h8a2 2 0 0 1 2 2v5.81c-.61-.35-1.28-.59-2-.72V8H4v10h9.09c-.05.33-.09.66-.09 1m8.34-3.16-3.59 3.59-1.59-1.59L15 19l2.75 3 4.75-4.75z"/></svg>

<svg xmlns="http://www.w3.org/2000/svg" id="mdi-folder-check-outline" viewBox="0 0 24 24"><path d="M13 19C13 19.34 13.04 19.67 13.09 20H4C2.9 20 2 19.11 2 18V6C2 4.89 2.89 4 4 4H10L12 6H20C21.1 6 22 6.89 22 8V13.81C21.39 13.46 20.72 13.22 20 13.09V8H4V18H13.09C13.04 18.33 13 18.66 13 19M21.34 15.84L17.75 19.43L16.16 17.84L15 19L17.75 22L22.5 17.25L21.34 15.84Z" /></svg>
